svg/sport/wheelchair_line.svg

<svg xmlns="http://www.w3.org/2000/svg" width="24" height="24" viewBox="0 0 24 24"><g fill="none" fill-rule="evenodd"><path d="M24,0 L24,24 L0,24 L0,0 L24,0 Z M12.5935,23.2578 L12.5819,23.2595 L12.5109,23.295 L12.4919,23.2987 L12.4767,23.295 L12.4057,23.2595 C12.3958,23.2564 12.387,23.259 12.3821,23.2649 L12.378,23.2758 L12.3609,23.7031 L12.3659,23.7235 L12.3769,23.7357 L12.4805,23.8097 L12.4953,23.8136 L12.5071,23.8097 L12.6107,23.7357 L12.6233,23.7197 L12.6267,23.7031 L12.6096,23.2758 C12.6076,23.2657 12.601,23.2593 12.5935,23.2578 Z M12.8584,23.1453 L12.8445,23.1473 L12.6598,23.2397 L12.6499,23.2499 L12.6472,23.2611 L12.6651,23.6906 L12.6699,23.7034 L12.6784,23.7105 L12.8793,23.8032 C12.8914,23.8069 12.9022,23.803 12.9078,23.7952 L12.9118,23.7812 L12.8777,23.1665 C12.8753,23.1546 12.8674,23.147 12.8584,23.1453 Z M12.143,23.1473 C12.1332,23.1424 12.1222,23.1453 12.1156,23.1526 L12.1099,23.1665 L12.0758,23.7812 C12.0751,23.7927 12.0828,23.8019 12.0926,23.8046 L12.1083,23.8032 L12.3092,23.7105 L12.3186,23.7024 L12.3225,23.6906 L12.3404,23.2611 L12.3372,23.2485 L12.3278,23.2397 L12.143,23.1473 Z"/><path fill="#09244B" d="M2,3 C2,2.44772 2.44772,2 3,2 L4.16542,2 C5.132,2 5.96026,2.69125 6.13316,3.64223 L5.14929,3.82111 L6.13316,3.64223 L6.56185,6 L15.1736,6 C16.7252,6 18.0208,7.18316 18.1613,8.72839 L18.5655,13.1753 C18.6159,13.2098 18.6633,13.2491 18.7071,13.2929 L20.4142,15 L21,15 C21.5523,15 22,15.4477 22,16 C22,16.5523 21.5523,17 21,17 L20,17 C19.7348,17 19.4804,16.8946 19.2929,16.7071 L18.846,16.2602 L18.9294,17.1785 C19.8499,17.5473 20.5,18.4477 20.5,19.5 C20.5,20.8807 19.3807,22 18,22 C16.6193,22 15.5,20.8807 15.5,19.5 C15.5,18.5034 16.0832,17.6429 16.9269,17.2414 L16.7231,15 L13.9169,15 C13.9716,15.3255 14,15.6597 14,16 C14,19.3137 11.3137,22 8,22 C4.68629,22 2,19.3137 2,16 C2,13.6298 3.37376,11.5825 5.36679,10.6075 L4.16542,4 L3,4 C2.44772,4 2,3.55228 2,3 Z M7.29656,10.0409 C7.52752,10.0139 7.76228,10 8,10 C10.2222,10 12.1604,11.2079 13.1971,13 L16.5413,13 L16.1695,8.90946 C16.1226,8.39439 15.6908,8 15.1736,8 L6.92549,8 L7.29656,10.0409 Z M8,12 C7.57914,12 7.17527,12.0647 6.79675,12.1839 C5.17449,12.6948 4,14.2115 4,16 C4,18.2091 5.79086,20 8,20 C10.2091,20 12,18.2091 12,16 C12,15.4293 11.8811,14.889 11.6676,14.4004 C11.0494,12.9856 9.6387,12 8,12 Z M18,19 C17.7239,19 17.5,19.2239 17.5,19.5 C17.5,19.7761 17.7239,20 18,20 C18.2761,20 18.5,19.7761 18.5,19.5 C18.5,19.2239 18.2761,19 18,19 Z"/></g></svg>

<svg xmlns="http://www.w3.org/2000/svg" width="24" height="24"><g fill="none" fill-rule="evenodd"><path d="M24 0v24H0V0zM12.594 23.258l-.012.002-.071.035-.02.004-.014-.004-.071-.036c-.01-.003-.019 0-.024.006l-.004.01-.017.428.005.02.01.013.104.074.015.004.012-.004.104-.074.012-.016.004-.017-.017-.427c-.002-.01-.009-.017-.016-.018m.264-.113-.014.002-.184.093-.01.01-.003.011.018.43.005.012.008.008.201.092c.012.004.023 0 .029-.008l.004-.014-.034-.614c-.003-.012-.01-.02-.02-.022m-.715.002a.023.023 0 0 0-.027.006l-.006.014-.034.614c0 .012.007.02.017.024l.015-.002.201-.093.01-.008.003-.011.018-.43-.003-.012-.01-.01z"/><path fill="#09244B" d="M2 3a1 1 0 0 1 1-1h1.165a2 2 0 0 1 1.968 1.642l-.984.18.984-.18L6.562 6h8.612a3 3 0 0 1 2.987 2.728l.404 4.447c.05.035.098.074.142.118L20.414 15H21a1 1 0 1 1 0 2h-1a1 1 0 0 1-.707-.293l-.447-.447.083.918a2.5 2.5 0 1 1-2.002.063L16.723 15h-2.806a6 6 0 1 1-8.55-4.392L4.165 4H3a1 1 0 0 1-1-1m5.297 7.04a5.997 5.997 0 0 1 5.9 2.96h3.344l-.372-4.09a1 1 0 0 0-.995-.91H6.925zM8 12a4.002 4.002 0 0 0 0 8 4 4 0 0 0 0-8m10 7a.5.5 0 1 0 0 1 .5.5 0 0 0 0-1"/></g></svg>
